X: 9608
T: Dawn Dance
R: reel
M: 4/4
K: Eminor
|:eAAe d/c/BA2|F/G/A A/B/c B/c/d/B/ e/d/c/B/|eAA~e d/c/BA2|F/G/A A/B/c/d/ ~c~BA2:|
eAAe d/c/BA2|F/G/A A/B/c B/c/d/B/ e/d/c/B/|eAA~e d/c/BA2|
|:BB/c/ dd e2d e/f/|gg/f/ eg f/e/d Bc|[M:3/4]dc/B/ A2 G2|
[M:4/4]BB/c/ dd e2d e/f/|g2a2 ba/g/ fa|[M:5/4]gdce dc/B/ A2G2:|

